!!!COA:	des Prez, Josquin
!!!CDT:	~1450-1521/08/27
!!!OPR:	Missa Allez regretz II
!!!ONM:	5
!!!OTL:	Agnus Dei
!!!AGN:	Mass; Agnus Dei
!!!SCT:	NJE 7.2
!!!SCA:	New Josquin Edition 7.2
!!!voices:	4
!!!COM:	Compére, Loyset / des Prez, Josquin ?
!!!OTL:	Jos0702e-Missa_Allez_regretz_II-Agnus
**kern	**kern	**kern	**kern
*part4	*part3	*part2	*part1
*staff4	*staff3	*staff2	*staff1
*Ivox	*Ivox	*Ivox	*Ivox
*I"Bassus	*I"Tenor	*I"Contratenor	*I"Superius
*I'B	*I'T	*I'Ct	*I'S
*>[A,B,C]	*>[A,B,C]	*>[A,B,C]	*>[A,B,C]
*>A	*>A	*>A	*>A
*clefF4	*clefGv2	*clefGv2	*clefG2
*k[b-]	*k[b-]	*k[b-]	*k[b-]
*d:	*d:	*d:	*d:
*M2/1	*M2/1	*M2/1	*M2/1
*met(C|2)	*met(C|)	*met(C|2)	*met(C|2)
*	*rscale:1/2	*	*
!!primary-mensuration: met(C|2)
=1	=1	=1	=1
!!section: Agnus dei I
!!!OMD: Agnus dei I
!	!LO:N:vis=0	!	!
1.C	0r	[0c	0r
2D	.	.	.
=2.	=2-	=2.	=2.
1E	0ryy	1c]	0r
1F	.	1A	.
=3	=3	=3	=3
!	!LO:N:vis=0	!	!
0G	0r	1.B-	0r
.	.	4AL	.
.	.	4GJ	.
=4.	=4-	=4.	=4.
1.A	0ryy	0F	0r
4GL	.	.	.
4FJ	.	.	.
=5	=5	=5	=5
!	!LO:N:vis=0	!	!
1.E	[y0c	1.C	0r
2D	.	2D	.
=6.	=6-	=6.	=6.
1C	0c]yy	1E	0r
[1F	.	1F	.
=7	=7	=7	=7
1F]	0c	1.G	0r
1E	.	.	.
.	.	4FL	.
.	.	4GJ	.
=8.	=8-	=8.	=8.
1.F	0A	0A	1.c
2E	.	.	2d
=9	=9	=9	=9
1C	1G	0r	1e
!	!LO:N:vis=1	!	!
1D	[y1B-	.	1f
=10.	=10-	=10.	=10.
0GG	1B-]yy	0r	1.g
.	2A	.	.
.	2G	.	4fL
.	.	.	4gJ
=11	=11	=11	=11
1r	0F	1.F	0a
[1D	.	.	.
.	.	2G	.
=12.	=12-	=12.	=12.
2D]	0F	1A	0r
2C	.	.	.
1D	.	1B-	.
=13	=13	=13	=13
1.E-Xi	0G	1.c	0r
2D	.	4B-L	.
.	.	4cJ	.
=14.	=14-	=14.	=14.
0BB-	0B-	0d	0r
=15	=15	=15	=15
1r	0A	0r	1.c
[1C	.	.	.
.	.	.	2d
=16.	=16-	=16.	=16.
1C]	0A	0r	1e
1D	.	.	1f
=17	=17	=17	=17
*	*M2/1	*	*
*	*met(2)	*	*
*	*rscale:1	*	*
0BB-	1.G	1r	1.g
.	.	1r	.
.	4A	.	4f
.	4B-	.	4g
=18.	=18	=18.	=18.
*	*M2/1	*	*
*	*met(C)	*	*
!	!LO:N:vis=1	!	!
0AA	[y0c	1.C	0a
.	.	2D	.
=19	=19-	=19	=19
0r	0c]yy	1E	0r
.	.	1F	.
=20.	=20	=20.	=20.
*	*M2/1	*	*
*	*met(C|2)	*	*
0r	1.B-	1.G	0r
.	4AL	4FL	.
.	4GJ	4GJ	.
=21	=21	=21	=21
*	*M2/1	*	*
*	*met(C|)	*	*
*	*rscale:1/2	*	*
1D	1F	0A	0r
1C	1E	.	.
=22.	=22-	=22.	=22.
1AA	1F	1F	1.c
1FF	1A	1f	.
.	.	.	2d
=23	=23	=23	=23
*	*M2/1	*	*
*	*met(C)	*	*
*	*rscale:1	*	*
!	!LO:N:vis=1	!	!
[0C	[y0G	1g	1e
.	.	[1f	1f
=24.	=24-	=24.	=24.
0C]	0G]yy	1f]	1.g
.	.	1e	.
.	.	.	4fL
.	.	.	4gJ
=25	=25	=25	=25
*	*M2/1	*	*
*	*met(C|)	*	*
*	*rscale:1/2	*	*
0FF	[0F	0f	0a
=26.	=26-	=26.	=26.
1r	0F_	1c	1.f
[1FF	.	[1f	.
.	.	.	2g
=27	=27	=27	=27
1FF]	0F_	1f]	1a
[1BB-	.	2e	1b-
.	.	2d	.
=28.	=28-	=28.	=28.
1BB-]	0F]	0c	1.cc
1AA	.	.	.
.	.	.	4b-L
.	.	.	4ccJ
=29	=29	=29	=29
1.BB-	0r	0B-	0dd
2C	.	.	.
=30.	=30-	=30.	=30.
1.D	0F	0A	0r
2E	.	.	.
=31	=31	=31	=31
0F	0c	1r	1.c
.	.	[1A	.
.	.	.	2d
=32.	=32-	=32.	=32.
0r	0c	2A]	1e
.	.	2G	.
.	.	1A	1f
=33	=33	=33	=33
0r	0d	1.B-	1.g
.	.	2A	4fL
.	.	.	4gJ
=34.	=34-	=34.	=34.
0D	0d	[0F	0a
=35	=35	=35	=35
!	!LO:N:vis=1.	!	!
[0A	[y0c	0F]	1.c
.	.	.	2d
=36.	=36-	=36.	=36.
0A]	1c]yy	0r	1e
.	2B-	.	1f
.	2A	.	.
=37	=37	=37	=37
*	*M2/1	*	*
*	*met(C)	*	*
*	*rscale:1/4	*	*
0G	0B-	0r	1.g
.	.	.	4fL
.	.	.	4gJ
=38.	=38-	=38.	=38.
1D	0A	1.F	0a
[1F	.	.	.
.	.	2G	.
=39	=39	=39	=39
*	*M2/1	*	*
*	*met(C|)	*	*
*	*rscale:1/2	*	*
1F]	1F	1A	0r
!	!LO:N:vis=1	!	!
[1E-X	[y1G	1B-	.
=40.	=40-	=40.	=40.
1E-]	1G]yy	1.c	0r
2D	[1A	.	.
2C	.	4B-L	.
.	.	4cJ	.
=41	=41	=41	=41
0BB-	1A]	0d	0r
.	1G	.	.
=42.	=42	=42.	=42.
*	*M2/1	*	*
*	*met(2)	*	*
*	*rscale:1	*	*
1.AA	[0A	0r	1.c
2BB-	.	.	2d
=43	=43	=43	=43
1C	0A]	1r	1e
1D	.	[1d	1f
=44.	=44	=44.	=44.
*	*M2/1	*	*
*	*met(C|)	*	*
*	*rscale:1/2	*	*
0G	0r	1d]	1.g
.	.	1e	.
.	.	.	4fL
.	.	.	4gJ
=45	=45-	=45	=45
0F	0A	1f	0a
.	.	1c	.
=46.	=46	=46.	=46.
1F]	0A	0f	1.c
2E	.	.	.
2D	.	.	2d
=47	=47-	=47	=47
1C	0A	0r	1e
1D	.	.	1f
=48.	=48	=48.	=48.
0GG	0B-	0d	1.g
.	.	.	4fL
.	.	.	4gJ
=49	=49	=49	=49
*	*M2/1	*	*
*	*met(3)	*	*
0r	3%4A	0e	0a
.	3%2G	.	.
=50.	=50-	=50.	=50.
!	!LO:N:vis=2.	!	!
0D	3%2.F	0f	0r
.	3E	.	.
.	3%2D	.	.
=51	=51	=51	=51
*	*M2/1	*	*
*	*met(C)	*	*
1.E	[y0C	0g	0r
2F	.	.	.
=52.	=52-	=52.	=52.
1G	0C]yy	1r	1.c
[1A	.	[1c	.
.	.	.	2d
=53	=53	=53	=53
*	*M2/1	*	*
*	*met(C.)	*	*
*	*rscale:1/4	*	*
!	!LO:N:vis=1.	!	!
2A]	[y0c	1c]	1e
2G	.	.	.
[1F	.	2B-	1f
.	.	2A	.
=54.	=54-	=54.	=54.
1F]	0c_yy	0G	1.g
1E	.	.	.
.	.	.	4fL
.	.	.	4gJ
=55	=55-	=55	=55
0F	0c]yy	1F	0a
.	.	1f	.
=56.	=56-	=56.	=56.
!	!LO:N:vis=2.	!	!
1r	[y0B-	1d	0r
[1G	.	[1e	.
=57	=57-	=57	=57
2G]	1B-]yy	2e]	0r
2F	.	2d	.
1D	1A	[1d	.
=58.	=58-	=58.	=58.
1.E-Xi	0G	1d]	0r
.	.	1c	.
2D	.	.	.
=59	=59	=59	=59
!	!LO:N:vis=1.	!	!
0BB-	[y0d	1B-	0r
.	.	2A	.
.	.	2G	.
=60.	=60-	=60.	=60.
2BB-	0d_yy	1.F	0r
2C	.	.	.
2D	.	.	.
2E	.	2G	.
=61	=61-	=61	=61
1F	0d]yy	1A	0r
1G	.	1B-	.
=62.	=62-	=62.	=62.
!	!LO:N:vis=2.	!	!
0C	[y0c	1G	1.c
.	.	[1A	.
.	.	.	2d
=63	=63-	=63	=63
0r	1c]yy	2A]	1e
.	.	2B-	.
.	1A	1c	1f
=64.	=64-	=64.	=64.
0G	0B-	1d	1.g
.	.	1e	.
.	.	.	4fL
.	.	.	4gJ
=65	=65	=65	=65
*	*M2/1	*	*
*	*met(C)	*	*
*	*rscale:1/2	*	*
!	!LO:N:vis=1	!	!
1F	[y0F	1.f	[0a
[1A	.	.	.
.	.	2e	.
=66.	=66-	=66.	=66.
2A]	0F]yy	1c	0a]
2B-	.	.	.
[1c	.	[1f	.
=67	=67	=67	=67
*	*M2/1	*	*
*	*met(C|)	*	*
1c]	0G	1f]	0r
1B-	.	1e	.
=68.	=68-	=68.	=68.
1c	0F	0f	0r
[1F	.	.	.
=69	=69	=69	=69
2F]	1r	0c	0r
2G	.	.	.
!	!LO:N:vis=1	!	!
1A	[y1F	.	.
=70.	=70-	=70.	=70.
1D	1F]yy	0d	0r
1G	[1G	.	.
=71	=71	=71	=71
0C	1G]	1.e	1.c
.	1A	.	.
.	.	2f	2d
=72.	=72-	=72.	=72.
1G	1B-	1g	1e
1A	[1c	[1f	1f
=73	=73	=73	=73
0G	1c]y	1f]	1.g
.	1B-	1e	.
.	.	.	4fL
.	.	.	4gJ
=74.	=74	=74.	=74.
*	*M2/1	*	*
*	*met(C.)	*	*
*	*rscale:1/2	*	*
!	!LO:N:vis=1.	!	!
[0F	[y0c	1f	0a
.	.	1F	.
=75	=75-	=75	=75
1F]	0c_yy	0A	1.c
[1C	.	.	.
.	.	.	2d
=76.	=76-	=76.	=76.
2C]	0c]yy	1G	1e
2BB-	.	.	.
1AA	.	1F	1f
=77	=77-	=77	=77
!	!LO:N:vis=1.	!	!
0GG	[y0d	0B-	1.g
.	.	.	4fL
.	.	.	4gJ
=78.	=78-	=78.	=78.
[0D	0d_yy	1A	[0a
.	.	1F	.
=79	=79-	=79	=79
1D]	0d]yy	1.f	0a]
[1F	.	.	.
.	.	2g	.
=80.	=80	=80.	=80.
2F]	[0cl	1a	1.c
2G	.	.	.
[1A	.	1f	.
.	.	.	2d
=81	=81-	=81	=81
1A]	0c_	1c	1e
1F	.	[1f	1f
=82.	=82	=82.	=82.
1r	0c_	1f]	1.g
1C	.	1e	.
.	.	.	4fL
.	.	.	4gJ
=83	=83-	=83	=83
1.F	0c_	1f	0a
.	.	[1F	.
2G	.	.	.
=84.	=84	=84.	=84.
1A	0c_	2F]	1.c
.	.	2G	.
1F	.	2A	.
.	.	2B-	2d
=85	=85-	=85	=85
1C	0c_	1c	1e
[1F	.	1A	1f
=86.	=86	=86.	=86.
1F]	0c_	0G	1.g
1E	.	.	.
.	.	.	4fL
.	.	.	4gJ
=87	=87-	=87	=87
1.F	0c_	1F	[0al
.	.	[1f	.
2G	.	.	.
=88.	=88	=88.	=88.
0A	0c_	1f]	0a_
.	.	1e	.
=89	=89-	=89	=89
0Fl	0c]	0fl	0a]
*	*rscale:1	*	*
!!LO:LB:i:g=z
=90||	=90||	=90||	=90||
*>B	*>B	*>B	*>B
*clefF4	*clefGv2	*clefGv2	*clefG2
*k[b-]	*k[b-]	*k[b-]	*k[b-]
*M2/1	*M2/1	*M2/1	*M2/1
*met(C|)	*met(O)	*met(C|)	*met(C|)
*	*rscale:1/2	*	*
!!section: Agnus dei II
!!!OMD: Agnus dei II
!	!LO:N:vis=0.	!	!
0r	[y0c	0r	1g
.	.	.	2e
.	.	.	[2g
=91	=91-	=91	=91
1r	0c_yy	0r	4g]
.	.	.	4f
.	.	.	4e
.	.	.	4d
1A	.	.	1c
=92	=92-	=92	=92
2F	0c]yy	0r	0r
2.A	.	.	.
4G	.	.	.
4F	.	.	.
4E	.	.	.
=93	=93	=93	=93
2D	0B-	1d	0r
2BB-	.	.	.
2.D	.	2B-	.
.	.	[2d	.
4C	.	.	.
=94	=94-	=94	=94
!	!LO:N:vis=0	!	!
4BB-	[y0B-	4d]	1dd
4AA	.	4c	.
2GG	.	4B-	.
.	.	4A	.
2r	.	1G	2b-
2G	.	.	[2dd
=95	=95-	=95	=95
2D	0B-]yy	0r	4dd]
.	.	.	4cc
2.G	.	.	4b-
.	.	.	4a
.	.	.	1g
4F	.	.	.
4E	.	.	.
4D	.	.	.
=96	=96	=96	=96
*	*M2/1	*	*
*	*met(C)	*	*
*	*rscale:1/2	*	*
!	!LO:N:vis=0	!	!
2C	[y0A	0r	1r
2c	.	.	.
2A	.	.	1cc
[2c	.	.	.
=97	=97-	=97	=97
4c]	0A]yy	1c	2a
4B-	.	.	.
4A	.	.	2.cc
4G	.	.	.
1F	.	2A	.
.	.	.	4b-
.	.	[2c	4a
.	.	.	4g
=98	=98	=98	=98
4F	0A	4c]	2.f
4G	.	4B-	.
4A	.	4A	.
4B-	.	4G	4g
2A	.	4F	4a
.	.	4G	4b-
2F	.	4A	2a
.	.	4B-	.
=99	=99-	=99	=99
1c	0A	2A	2f
.	.	2F	2cc
1F	.	2.c	2r
.	.	.	[2c
.	.	4d	.
=100	=100	=100	=100
*	*M2/1	*	*
*	*met(C.)	*	*
*	*rscale:1	*	*
!	!LO:N:vis=1.	!	!
2r	[y0G	4e	4c]
.	.	4f	4d
2.C	.	2e	4e
.	.	.	4f
.	.	2c	2e
4D	.	.	.
4E	.	2g	2c
4F	.	.	.
=101	=101-	=101	=101
2E	1G]yy	2r	1g
!	!	!LO:N:vis=1	!
2C	.	[y2c	.
*	*M2/1	*	*
*	*met(C|)	*	*
2FF	2.A	2c]yy	2f
2C	.	2c	[2e
.	4G	.	.
=102	=102	=102	=102
2D	4F	2B-	4e]
.	4E	.	4d
2BB-	2D	2G	1d
1AA	1E	1A	.
.	.	.	2c#Xi
=103	=103	=103	=103
*	*M2/1	*	*
*	*met(C)	*	*
*	*rscale:1/2	*	*
2.A	1.D	2.F	2d
.	.	.	1a
4G	.	4G	.
2F	.	4A	.
.	.	4B-	.
2E	2E	[2c	2g
=104	=104-	=104	=104
1D	1F	2c]	2f
.	.	2B-	4e
.	.	.	4d
1C	1G	[1c	[1e
=105	=105	=105	=105
*	*M2/1	*	*
*	*met(C|)	*	*
*	*rscale:1	*	*
1AA	2.A	1c]	1e]
.	4G	.	.
2r	4F	2c	2.a
.	4E	.	.
[2D	2F	[2A	.
.	.	.	4g
=106	=106	=106	=106
*	*M2/1	*	*
*	*met(C)	*	*
*	*rscale:1/2	*	*
2D]	1A	4A]	2f
.	.	4B-	.
2C	.	2c	2e
1BB-	1B-	2F	1d
.	.	[2f	.
=107	=107-	=107	=107
0C	0G	2f]	1c
.	.	4e	.
.	.	4d	.
.	.	1e	2r
.	.	.	[2cc
=108	=108	=108	=108
*	*M2/1	*	*
*	*met(O)	*	*
*	*rscale:1/2	*	*
1FF	0F	1f	2cc]
.	.	.	2dd
1F	.	2r	2cc
.	.	[2f	[2a
=109	=109-	=109	=109
1C	1r	2f]	2a]
.	.	2e	2g
!	!LO:N:vis=1	!	!
1F	[y1f	1c	2a
.	.	.	[2cc
=110	=110-	=110	=110
1r	1f]yy	1d	2cc]
.	.	.	2b-
1C	1e	1c	1cc
=111	=111	=111	=111
*	*M2/1	*	*
*	*met(C|)	*	*
*	*rscale:1	*	*
2F	1c	1A	2r
2A	.	.	1cc
1G	1d	1r	.
.	.	.	2b-
=112	=112	=112	=112
2C	0c	1r	2g
1F	.	.	[2a
.	.	2r	4a]
.	.	.	4g
2E	.	2G	[2g
=113	=113	=113	=113
1A	1c	1A	2g]
.	.	.	2f#Xi
1G	1d	1B-	1g
=114	=114	=114	=114
2A	2c	1c	2r
2F	2A	.	1f
1G	4B-	1r	.
.	4A	.	.
.	4G	.	2e
.	4F	.	.
=115	=115	=115	=115
0r	2E	0r	2c
.	1F	.	[2d
.	.	.	4d]
.	.	.	4c
.	2E	.	[2c
=116	=116	=116	=116
2r	1D	1r	2c]
1F	.	.	2Bni
.	1C	2r	1c
2E	.	[2c	.
=117	=117	=117	=117
*	*M2/1	*	*
*	*met(C)	*	*
*	*rscale:1/2	*	*
1D	1F	2c]	2r
.	.	2B-	2d
1C	1G	1c	1e
=118	=118-	=118	=118
2r	1.A	1F	1c
2.F	.	.	.
.	.	2c	2.f
4E	.	.	.
2D	2B-	2d	.
.	.	.	4g
=119	=119	=119	=119
*	*M2/1	*	*
*	*met(C|)	*	*
*	*rscale:1	*	*
2C	2c	2e	2a
2BB-	1d	2.f	2b-
2.F	.	.	2.a
.	.	4e	.
.	[2c	2f	.
4G	.	.	4b-
=120	=120	=120	=120
2A	4c]	2c	2cc
.	4A	.	.
2G	2B-	2g	2.dd
1A	2c	2e	.
.	.	.	4cc
.	2F	2f	[2cc
=121	=121	=121	=121
1G	0G	1d	2cc]
.	.	.	2bni
1C	.	1c	1cc
=122	=122	=122	=122
2r	[0Fl	1A	2r
1D	.	.	2.f
.	.	1d	.
.	.	.	4g
4C	.	.	4a
4BB-	.	.	4b-
=123	=123	=123	=123
2AA	0F_	2c	2cc
1BB-	.	2F	1dd
.	.	1B-	.
4AA	.	.	4cc
4GG	.	.	4b-
=124	=124	=124	=124
0FFl	0F]	0cl	0al
!!LO:LB:i:g=z
=125||	=125||	=125||	=125||
*>C	*>C	*>C	*>C
*clefF4	*clefGv2	*clefGv2	*clefG2
*k[b-]	*k[b-]	*k[b-]	*k[b-]
*M2/1	*M2/1	*M2/1	*M2/1
*met(C|)	*met(C|)	*met(C|)	*met(C|)
!!section: Agnus dei III
!!!OMD: Agnus dei III
2.C	0c	0r	0r
4D	.	.	.
2E	.	.	.
[2F	.	.	.
=126	=126	=126	=126
2F]	1c	0r	1r
2E	.	.	.
1F	1A	.	2.c
.	.	.	4d
=127	=127	=127	=127
0r	2G	0r	2e
.	1B-	.	1f
.	4A	.	2e
.	4G	.	.
=128	=128	=128	=128
2r	0F	2.A	1f
1A	.	.	.
.	.	4B-	.
.	.	2c	1r
2D	.	[2d	.
=129	=129	=129	=129
1E	1G	2d]	1r
.	.	2c#Xi	.
2r	1B-	1d	2.d
[2D	.	.	.
.	.	.	4e
=130	=130	=130	=130
2D]	0A	0r	2f
2C	.	.	1g
1D	.	.	.
.	.	.	2f#Xi
=131	=131	=131	=131
1GG	1.G	2r	1g
.	.	2.d	.
1r	.	.	1r
.	.	4e	.
.	4A	4f	.
.	4B-	4g	.
=132	=132	=132	=132
0r	1c	2a	1r
.	.	1g	.
.	[1B-	.	2r
.	.	2f	[2d
=133	=133	=133	=133
0r	2B-]	2.d	4d]
.	.	.	4e
.	4A	.	4f
.	4G	4e	4g
.	2F	2f	2a
.	2E	2g	[2g
=134	=134	=134	=134
0r	2F	1c	4g]
.	.	.	4f
.	2A	.	1f
.	1G	1r	.
.	.	.	2e
=135	=135	=135	=135
0r	[0F	2r	1f
.	.	2c	.
.	.	2d	2r
.	.	2c	2c
=136	=136	=136	=136
0r	0F]	0f	2d
.	.	.	1c
.	.	.	[2f
=137	=137	=137	=137
2r	1r	1g	2f]
2C	.	.	2e
1D	1F	2r	1f
.	.	[2f	.
=138	=138	=138	=138
1C	1c	2f]	1g
.	.	2e	.
1F	1c	[1f	2r
.	.	.	[2a
=139	=139	=139	=139
0r	1d	1f]	4a]
.	.	.	4g
.	.	.	2a
.	1d	1d	2f
.	.	.	2d
=140	=140	=140	=140
2.A	1.c	1e	2r
.	.	.	2.a
4G	.	.	.
2A	.	1c	.
.	.	.	4g
2F	4B-	.	2a
.	4A	.	.
=141	=141	=141	=141
1D	2B-	2d	2f
.	2A	1f	2d
2D	2F	.	1r
[2C	[2G	[2e	.
=142	=142	=142	=142
2C]	2G]	2e]	0r
4BB-	1A	4d	.
4AA	.	4c	.
1E	.	1B-	.
.	2G	.	.
=143	=143	=143	=143
2r	[0A	1A	0r
2.AA	.	.	.
.	.	2r	.
4BB-	.	.	.
4C	.	[2A	.
4D	.	.	.
=144	=144	=144	=144
2C	0A]	4A]	0r
.	.	4B-	.
1F	.	4c	.
.	.	4d	.
.	.	2c	.
4E	.	[2d	.
4D	.	.	.
=145	=145	=145	=145
1E	1r	2d]	1r
.	.	2c#Xi	.
1D	1A	2d	2.a
.	.	[2f	.
.	.	.	4b-
=146	=146	=146	=146
0r	1A	2f]	2cc
.	.	4e	1dd
.	.	4d	.
.	1A	1e	.
.	.	.	2cc#Xi
=147	=147	=147	=147
2r	1B-	1d	1dd
1G	.	.	.
.	1A	1r	1a
2F	.	.	.
=148	=148	=148	=148
2G	2G	2r	2b-
2A	1F	1A	1cc
1F	.	.	.
.	4E	2B-	[2f
.	4D	.	.
=149	=149	=149	=149
1G	1C	1c	2f]
.	.	.	2e
2r	1c	1F	1f
2F	.	.	.
=150	=150	=150	=150
2.G	2.B-	0r	1d
4F	4A	.	.
2E	2G	.	2c
2D	[2d	.	[2f
=151	=151	=151	=151
2BB-	2d]	1r	4f]
.	.	.	4g
1F	2.c	.	1a
.	.	2r	.
.	4A	.	.
2E	2B-	2G	[2g
=152	=152	=152	=152
2F	1F	2A	4g]
.	.	.	4f
2D	.	2B-	1f
1C	1G	[1c	.
.	.	.	2e
=153	=153	=153	=153
2FF	1F	1c]	2.f
2.F	.	.	.
.	.	.	4g
.	2r	1r	4a
4G	.	.	4b-
2A	[2F	.	[2a
=154	=154	=154	=154
2D	2F]	2r	2a]
1E	1G	1c	2g
.	.	.	2e
[2D	2A	[2d	[2f
=155	=155	=155	=155
2D]	2B-	2d]	2f]
2C	1c	2e	2e
4D	.	2f	1d
2.GG	.	.	.
.	2B-	[2g	.
=156	=156	=156	=156
1AA	1c	2g]	2c
.	.	2f	1cc
1GG	1d	2g	.
.	.	2G	2bni
=157	=157	=157	=157
1r	[0c	1A	0cc
1C	.	1G	.
=158	=158	=158	=158
2AA	0c_	2r	2cc
2.C	.	2c	2a
.	.	2A	2.cc
4BB-	.	.	.
4AA	.	[2c	.
4GG	.	.	4b-
=159	=159	=159	=159
1FF	0c]	4c]	4a
.	.	4B-	4g
.	.	4A	2f
.	.	4G	.
1r	.	1F	2r
.	.	.	2f
=160	=160	=160	=160
0r	1B-	2r	2d
.	.	2f	1f
.	1B-	2d	.
.	.	[2f	2d
=161	=161	=161	=161
2r	0A	4f]	2.f
.	.	4g	.
2F	.	2a	.
.	.	.	4g
2D	.	2f	2a
[2F	.	2c	2f
=162	=162	=162	=162
4F]	1A	1r	1c
4G	.	.	.
2A	.	.	.
1F	1A	2.c	1r
.	.	4d	.
=163	=163	=163	=163
1C	1G	4e	0r
.	.	4f	.
.	.	2g	.
2FF	2.A	2f	.
2C	.	[2e	.
.	4G	.	.
=164	=164	=164	=164
2D	4F	4e]	0r
.	4E	4d	.
2BB-	2D	1d	.
1AA	1E	.	.
.	.	2c#Xi	.
=165	=165	=165	=165
0r	2.D	2.d	2.f
.	4E	4c	4g
.	2F	2A	2a
.	2G	2G	2b-
=166	=166	=166	=166
0r	2.A	2.c	2a
.	.	.	2f
.	4G	4B-	.
.	4F	4A	2.cc
.	4E	4G	.
.	2F	[2F	.
.	.	.	4b-
=167	=167	=167	=167
0r	2A	4F]	4a
.	.	4E	4g
.	2B-	2D	1f
.	1G	1C	.
.	.	.	2e
=168	=168	=168	=168
2r	1F	2r	2.f
2.F	.	1c	.
.	.	.	4g
.	2r	.	2a
4E	.	.	.
2D	[2f	2B-	2d
=169	=169	=169	=169
1C	2f]	1G	1g
.	2e	.	.
1F	1c	1A	2f
.	.	.	[2cc
=170	=170	=170	=170
0r	1d	1G	2cc]
.	.	.	2b-
.	[1c	1r	1g
=171	=171	=171	=171
1F	0c]	0r	1a
2E	.	.	2g
2C	.	.	[2cc
=172	=172	=172	=172
1G	1d	2r	2cc]
.	.	1g	2b-
1A	2c	.	2cc
.	2A	2f	2c
=173	=173	=173	=173
1G	4B-	1g	1d
.	4A	.	.
.	4G	.	.
.	4F	.	.
2r	2E	1r	[1c
[2A	[2F	.	.
=174	=174	=174	=174
2A]	2F]	2r	1c]
2G	2E	1G	.
1A	1D	.	2r
.	.	2F	[2f
=175	=175	=175	=175
2r	1C	1G	2f]
1c	.	.	2e
.	2F	1r	1d
2B-	2G	.	.
=176	=176	=176	=176
2c	2.A	2.F	2c
2.A	.	.	2.cc
.	4B-	4G	.
.	2c	2A	.
4G	.	.	4b-
4F	[2d	2D	4a
4E	.	.	4g
=177	=177	=177	=177
2D	2d]	4F	2f
.	.	4G	.
1A	2.c	4A	4c
.	.	4B-	4d
.	.	2c	4e
.	4A	.	4f
2G	2B-	2d	[2g
=178	=178	=178	=178
2C	2c	2A	2g]
2D	2F	2B-	1f
1C	1G	1c	.
.	.	.	2e
=179	=179	=179	=179
0FFl	0Fl	0cl	0fl
==	==	==	==
*-	*-	*-	*-
!!!RDF**kern: l=long note in original notation
!!!system-decoration: s1,s2,s3,s4
!!!RDF**kern: i = editorial accidental
!!!ENC:	Chris Gage 04-03-2014; Jesse Rodin 24 Oct 2020
!!!END:	2020/10/24/
!!!EED:	Jesse Rodin
!!!EEV:	2021/06/07/
!!attribution-level@Jos: 4b (almost certainly by another composer [double question mark])
!!!ONB:	Translated from MusicXML and edited on 2021/06/07 by Craig Sapp
!!muse2ps: T^@{OPR}^u^@{ONM}{. }@{OTL}^C^@{COA}?\n@{SCT}^i2I150v85,85,85,150z18c140
